X: 18215
T: Humours Of Holliston
R: jig
M: 6/8
K: Amajor
a2e f2a|ecB BAF|EFA c2e|fec Bce|a2e f2a|
ecB BAF|1 EFA c2e|fcB A2e:|2 EFA c2B|BAF Aag||
f3fec|abc' baf|fec aec|cBA Bce|
~f3fec|abc' baf|fec aec|BAG Ace|
f3fec|abc' baf|fec aec|cBA BAF|
EFA Bce|(3B/c/B/AF Ace|~f3 fec|BAF A3||

